apps/web/src/assets/svgs/voting.svg

<?xml version="1.0" encoding="UTF-8" standalone="no"?>
<!-- Created with Inkscape (http://www.inkscape.org/) -->

<svg
   width="8mm"
   height="8mm"
   viewBox="0 0 8 8"
   version="1.1"
   id="svg1"
   sodipodi:docname="+1_flat.svg"
   inkscape:version="1.3.2 (091e20ef0f, 2023-11-25)"
   xmlns:inkscape="http://www.inkscape.org/namespaces/inkscape"
   xmlns:sodipodi="http://sodipodi.sourceforge.net/DTD/sodipodi-0.dtd"
   xmlns="http://www.w3.org/2000/svg"
   xmlns:svg="http://www.w3.org/2000/svg">
  <sodipodi:namedview
     id="namedview1"
     pagecolor="#ffffff"
     bordercolor="#000000"
     borderopacity="0.25"
     inkscape:showpageshadow="2"
     inkscape:pageopacity="0.0"
     inkscape:pagecheckerboard="0"
     inkscape:deskcolor="#d1d1d1"
     inkscape:document-units="mm"
     inkscape:zoom="15.586453"
     inkscape:cx="23.417772"
     inkscape:cy="36.249428"
     inkscape:window-width="2560"
     inkscape:window-height="1515"
     inkscape:window-x="0"
     inkscape:window-y="1415"
     inkscape:window-maximized="1"
     inkscape:current-layer="layer1" />
  <defs
     id="defs1" />
  <g
     inkscape:label="Capa 1"
     inkscape:groupmode="layer"
     id="layer1"
     transform="translate(-185.31651,-51.461388)">
    <g
       id="g492-2"
       transform="matrix(1.7327501,0,0,1.7327501,148.29105,87.096278)">
      <g
         id="g491-2">
        <g
           id="g490-6"
           transform="translate(-25.656587,-48.073924)">
          <path
             id="path488-1"
             style="color:#000000;fill:#000000;stroke-linecap:round;stroke-linejoin:round;-inkscape-stroke:none"
             d="M 50.371099 28.523303 A 0.16754775 0.16754775 0 0 0 50.234508 28.585932 C 50.031083 28.837538 49.817573 28.992986 49.570341 29.035072 A 0.167531 0.167531 0 0 0 49.433452 29.228625 A 0.167531 0.167531 0 0 0 49.627006 29.365216 C 49.858326 29.325836 50.0201 29.14236 50.197228 28.990337 L 50.197228 30.943468 A 0.167531 0.167531 0 0 0 50.365134 31.111374 A 0.167531 0.167531 0 0 0 50.533338 30.943468 L 50.533338 28.689419 A 0.16754775 0.16754775 0 0 0 50.421798 28.533144 A 0.16754775 0.16754775 0 0 0 50.371099 28.523303 z M 48.740357 29.425758 A 0.13960899 0.13960899 0 0 0 48.601679 29.564436 L 48.601679 29.999857 L 48.185643 29.999857 A 0.13960899 0.13960899 0 0 0 48.046964 30.140624 A 0.13960899 0.13960899 0 0 0 48.185643 30.279302 L 48.601679 30.279302 L 48.601679 30.714723 A 0.13960899 0.13960899 0 0 0 48.740357 30.853402 A 0.13960899 0.13960899 0 0 0 48.880825 30.714723 L 48.880825 30.279302 L 49.294774 30.279302 A 0.13960899 0.13960899 0 0 0 49.43554 30.140624 A 0.13960899 0.13960899 0 0 0 49.294774 29.999857 L 48.880825 29.999857 L 48.880825 29.564436 A 0.13960899 0.13960899 0 0 0 48.740357 29.425758 z " />
        </g>
      </g>
    </g>
  </g>
</svg>

<svg xmlns="http://www.w3.org/2000/svg" width="8mm" height="8mm" viewBox="0 0 8 8"><path d="M50.371 28.523a.17.17 0 0 0-.136.063c-.204.252-.417.407-.665.45a.17.17 0 0 0-.137.193.17.17 0 0 0 .194.136c.231-.04.393-.223.57-.375v1.953a.17.17 0 0 0 .168.168.17.17 0 0 0 .168-.168V28.69a.17.17 0 0 0-.111-.156.2.2 0 0 0-.05-.01m-1.63.903a.14.14 0 0 0-.14.138V30h-.415a.14.14 0 0 0-.139.14.14.14 0 0 0 .139.14h.416v.435a.14.14 0 0 0 .138.138.14.14 0 0 0 .14-.138v-.436h.415a.14.14 0 0 0 .14-.138.14.14 0 0 0-.14-.141h-.414v-.436a.14.14 0 0 0-.14-.138" style="color:#000;fill:#000;stroke-linecap:round;stroke-linejoin:round;-inkscape-stroke:none" transform="translate(-81.482 -47.665)scale(1.73275)"/></svg>
